web/packages/design/src/ResourceIcon/assets/checkly.svg

<svg width="72" height="72" viewBox="0 0 72 72" fill="none" xmlns="http://www.w3.org/2000/svg">
<g clip-path="url(#clip0_15936_7005)">
<path d="M70.5743 44.9234V15.1051C70.5743 6.76335 63.8114 0.000488281 55.4714 0.000488281H16.5279C8.18704 0.000488281 1.42418 6.76336 1.42418 15.1042V44.9243C0.698177 67.3206 16.1585 66.322 18.4565 66.322L35.9705 67.4809V67.4852H36.0288V67.4809L53.5428 66.322C55.8417 66.322 71.302 67.3232 70.576 44.9243L70.5743 44.9234Z" fill="#0075FF"/>
<path d="M46.1366 35.0486C63.1294 23.3598 64.4229 33.0258 57.5966 47.6975L57.5992 47.6992C55.4786 51.4578 60.1243 52.9878 64.0517 53.5132C64.0535 53.5158 61.68 60.7972 56.5714 64.9475L47.8029 67.0218L44.9734 67.9072C44.9503 67.909 41.0074 69.0952 40.4134 69.2615L31.5934 69.2598C30.9985 69.0927 27.0557 67.9055 27.0334 67.9055L24.2048 67.0192L15.4354 64.945C10.3268 60.7947 7.95251 53.5132 7.95508 53.5107C11.8799 52.9861 16.5282 51.4552 14.4068 47.6975C7.58137 33.0241 8.87394 23.3598 25.8677 35.0486C29.0485 33.7252 32.0151 33.4569 35.9494 33.3738C35.9582 33.3754 35.9671 33.376 35.976 33.3755H36.0548C39.9891 33.4595 42.9531 33.7252 46.1366 35.0486Z" fill="white"/>
<path d="M14.8401 33.1908C14.5761 33.2465 14.3103 33.3237 14.0823 33.4702C13.3478 33.946 13.5192 35.0345 13.5801 35.776C13.6975 37.1945 14.0086 38.6165 14.3798 40.0008C14.6339 40.9693 14.9626 41.9167 15.3629 42.8345C15.81 42.1428 16.3097 41.4865 16.8578 40.8717C17.2766 40.3987 17.7189 39.9469 18.1829 39.5182C20.6155 37.2682 23.0369 36.1497 23.0369 36.1497C20.7012 34.4705 17.8512 32.5411 14.8426 33.1882L14.8401 33.1908ZM57.1598 33.1908C57.4238 33.2465 57.6895 33.3237 57.9176 33.4702C58.6521 33.946 58.4807 35.0345 58.4207 35.776C58.3033 37.1945 57.9921 38.6165 57.6201 40.0008C57.3659 40.9693 57.0373 41.9167 56.637 42.8345C56.1902 42.1428 55.6907 41.4866 55.143 40.8717C54.7239 40.3986 54.2813 39.9469 53.817 39.5182C51.3844 37.2682 48.9638 36.1497 48.9638 36.1497C51.2987 34.4705 54.1487 32.5411 57.1581 33.1882L57.1598 33.1908ZM40.4018 69.244L40.3675 69.1669C39.9038 68.1229 38.9567 67.3729 37.899 66.9846C36.65 66.5331 35.2812 66.541 34.0375 67.0069C33.0004 67.4011 32.0918 68.1434 31.6298 69.1669L31.5964 69.244C31.5936 69.2489 31.5914 69.2541 31.5895 69.2594C32.5204 70.7809 34.1438 71.98 35.9721 72.0006H36.0261C37.857 71.9826 39.477 70.7851 40.4104 69.262C40.4077 69.2568 40.4054 69.2513 40.4035 69.2457L40.4018 69.244ZM33.7487 54.0494C33.3308 53.5955 32.854 53.1997 32.3309 52.8725C31.7676 52.5202 31.1657 52.2338 30.5369 52.0188C29.868 51.79 29.1763 51.6342 28.4738 51.5543C27.7349 51.4703 26.9867 51.4685 26.2469 51.55C25.4695 51.6331 24.7006 51.8088 23.9635 52.0703C23.1766 52.3497 22.4258 52.726 21.7289 53.1863C20.9671 53.6934 20.27 54.2915 19.6529 54.9674C18.9518 55.7294 18.3501 56.5788 17.8384 57.4788C17.2478 58.5318 16.7637 59.641 16.3932 60.79C15.956 62.1455 15.6331 63.5352 15.4281 64.9446C15.3972 65.1546 15.3655 65.362 15.3363 65.5754V65.5669C15.3158 65.6997 15.2618 66.004 15.2438 66.196C19.1841 66.6537 23.1226 67.192 27.0269 67.9043C26.9592 67.8931 27.4684 65.6911 27.5327 65.4674C27.6964 64.8863 27.8969 64.3111 28.1764 63.7746C28.5689 63.0194 29.1209 62.3886 29.8427 61.9351C30.5147 61.5134 31.2604 61.2271 31.9641 60.8637C32.7707 60.4471 33.5464 59.9448 34.1952 59.3063C34.8338 58.6823 35.0412 57.9837 35.0318 57.0974C35.0231 56.5405 34.9051 55.9906 34.6847 55.4791C34.4541 54.9536 34.1381 54.4699 33.7495 54.0477L33.7487 54.0494ZM56.7544 66.196C56.7338 66.0014 56.6824 65.6997 56.6618 65.5669V65.5754C56.6353 65.3611 56.6018 65.1546 56.5693 64.9446C56.3645 63.5352 56.0419 62.1455 55.605 60.79C55.2337 59.641 54.7496 58.5316 54.1598 57.478C53.6481 56.5788 53.0455 55.7294 52.3453 54.9666C51.7273 54.2916 51.0299 53.6938 50.2684 53.1863C49.5721 52.7245 48.822 52.3498 48.0347 52.0703C47.2975 51.8088 46.5287 51.6331 45.7512 51.55C45.0108 51.4691 44.2637 51.4705 43.5235 51.5543C42.8212 51.6331 42.1296 51.7889 41.4612 52.0188C40.8347 52.2348 40.2278 52.5185 39.6672 52.8725C39.1439 53.1996 38.6668 53.5954 38.2487 54.0494C37.8593 54.4711 37.5432 54.9549 37.3135 55.4808C37.0919 55.9923 36.9739 56.5426 36.9664 57.1C36.9578 57.9854 37.1644 58.6823 37.8021 59.3088C38.4518 59.9466 39.2275 60.4488 40.0341 60.8663C40.737 61.2297 41.4835 61.5134 42.1555 61.9377C42.8772 62.3903 43.4292 63.022 43.8218 63.7771C44.0987 64.3137 44.3018 64.888 44.4664 65.47C44.529 65.6929 45.039 67.8957 44.9712 67.9069C48.8755 67.1946 52.8141 66.6554 56.7544 66.1977V66.196Z" fill="#002F66"/>
<path d="M28.451 59.212C28.6813 59.212 28.9093 59.1667 29.1221 59.0785C29.3349 58.9904 29.5282 58.8612 29.691 58.6984C29.8539 58.5355 29.9831 58.3422 30.0712 58.1294C30.1593 57.9167 30.2047 57.6886 30.2047 57.4583C30.2047 57.228 30.1593 57 30.0712 56.7872C29.9831 56.5744 29.8539 56.3811 29.691 56.2182C29.5282 56.0554 29.3349 55.9262 29.1221 55.8381C28.9093 55.75 28.6813 55.7046 28.451 55.7046C27.9859 55.7046 27.5398 55.8894 27.2109 56.2182C26.882 56.5471 26.6973 56.9932 26.6973 57.4583C26.6973 57.9234 26.882 58.3695 27.2109 58.6984C27.5398 59.0273 27.9859 59.212 28.451 59.212ZM43.5479 59.212C43.7782 59.212 44.0062 59.1667 44.219 59.0785C44.4318 58.9904 44.6251 58.8612 44.7879 58.6984C44.9508 58.5355 45.08 58.3422 45.1681 58.1294C45.2562 57.9167 45.3016 57.6886 45.3016 57.4583C45.3016 57.228 45.2562 57 45.1681 56.7872C45.08 56.5744 44.9508 56.3811 44.7879 56.2182C44.6251 56.0554 44.4318 55.9262 44.219 55.8381C44.0062 55.75 43.7782 55.7046 43.5479 55.7046C43.0827 55.7046 42.6367 55.8894 42.3078 56.2182C41.9789 56.5471 41.7941 56.9932 41.7941 57.4583C41.7941 57.9234 41.9789 58.3695 42.3078 58.6984C42.6367 59.0273 43.0827 59.212 43.5479 59.212Z" fill="white"/>
</g>
<defs>
<clipPath id="clip0_15936_7005">
<rect width="72" height="72" fill="white" transform="translate(0 0.000488281)"/>
</clipPath>
</defs>
</svg>

<svg xmlns="http://www.w3.org/2000/svg" width="72" height="72" fill="none" viewBox="0 0 72 72"><g clip-path="url(#clip0_15936_7005)"><path fill="#0075ff" d="M70.574 44.923V15.105C70.574 6.763 63.811 0 55.471 0H16.528C8.187 0 1.424 6.763 1.424 15.104v29.82C.698 67.321 16.16 66.322 18.457 66.322l17.514 1.159v.004h.058v-.004l17.514-1.159c2.299 0 17.759 1.001 17.033-21.398z"/><path fill="#fff" d="M46.137 35.049c16.992-11.69 18.286-2.023 11.46 12.648l.002.002c-2.12 3.759 2.525 5.289 6.453 5.814.001.003-2.372 7.284-7.48 11.435l-8.77 2.074-2.829.885c-.023.002-3.966 1.188-4.56 1.355l-8.82-.002c-.594-.167-4.537-1.355-4.56-1.355l-2.828-.886-8.77-2.074c-5.108-4.15-7.482-11.432-7.48-11.434 3.925-.525 8.573-2.056 6.452-5.814C7.58 33.024 8.874 23.36 25.867 35.05c3.182-1.324 6.148-1.592 10.082-1.675l.027.002h.079c3.934.084 6.898.35 10.082 1.673"/><path fill="#002f66" d="M14.84 33.19c-.264.056-.53.134-.758.28-.734.476-.563 1.565-.502 2.306.117 1.418.429 2.84.8 4.225.254.968.583 1.916.983 2.834q.672-1.04 1.495-1.963.628-.71 1.325-1.354c2.433-2.25 4.854-3.368 4.854-3.368-2.336-1.68-5.186-3.609-8.194-2.962zm42.32 0c.264.056.53.134.758.28.734.476.563 1.565.503 2.306-.118 1.418-.429 2.84-.8 4.225a19.4 19.4 0 0 1-.984 2.834 16 16 0 0 0-1.494-1.963 19 19 0 0 0-1.326-1.354c-2.433-2.25-4.853-3.368-4.853-3.368 2.335-1.68 5.185-3.609 8.194-2.962zM40.402 69.245l-.035-.077c-.463-1.044-1.41-1.794-2.468-2.182a5.6 5.6 0 0 0-3.861.022c-1.038.394-1.946 1.136-2.408 2.16l-.034.077-.006.015c.93 1.522 2.554 2.721 4.382 2.742h.054c1.831-.018 3.451-1.216 4.384-2.739l-.006-.016zM33.749 54.05a7 7 0 0 0-1.418-1.176 8.7 8.7 0 0 0-1.794-.854 9.8 9.8 0 0 0-2.063-.465 10 10 0 0 0-2.227-.004 10 10 0 0 0-2.283.52 10.3 10.3 0 0 0-2.235 1.116 11.3 11.3 0 0 0-2.076 1.781 13.7 13.7 0 0 0-1.815 2.512 18 18 0 0 0-1.445 3.311 25.5 25.5 0 0 0-.965 4.155c-.03.21-.062.417-.092.63v-.008c-.02.133-.074.437-.092.629 3.94.458 7.879.996 11.783 1.708-.068-.01.441-2.213.506-2.437a9 9 0 0 1 .643-1.692 4.7 4.7 0 0 1 1.667-1.84c.672-.422 1.417-.708 2.121-1.071.807-.417 1.582-.92 2.231-1.558.639-.624.846-1.322.837-2.209a4.3 4.3 0 0 0-.347-1.618 5.2 5.2 0 0 0-.936-1.431zm23.005 12.147c-.02-.195-.072-.496-.092-.63v.01c-.027-.215-.06-.421-.093-.631a25.5 25.5 0 0 0-.964-4.155 18.3 18.3 0 0 0-1.445-3.312 13.8 13.8 0 0 0-1.815-2.511 11.4 11.4 0 0 0-2.077-1.78 10.2 10.2 0 0 0-2.233-1.117 10 10 0 0 0-2.284-.52c-.74-.08-1.487-.08-2.227.004a9.7 9.7 0 0 0-2.063.465c-.626.216-1.233.5-1.794.854a7 7 0 0 0-1.418 1.176c-.39.422-.706.906-.936 1.432a4.2 4.2 0 0 0-.347 1.619c-.008.885.198 1.582.836 2.209.65.638 1.425 1.14 2.232 1.557.703.364 1.45.647 2.122 1.072.721.452 1.273 1.084 1.666 1.84.277.536.48 1.11.644 1.692.063.223.573 2.426.505 2.437 3.905-.712 7.843-1.252 11.783-1.71z"/><path fill="#fff" d="M28.451 59.212a1.752 1.752 0 1 0 0-3.505 1.752 1.752 0 0 0 0 3.505m15.097 0a1.752 1.752 0 1 0 0-3.505 1.752 1.752 0 0 0 0 3.505"/></g><defs><clipPath id="clip0_15936_7005"><path fill="#fff" d="M0 0h72v72H0z"/></clipPath></defs></svg>
